outputs/icons/general/how_do_i_round.svg

<svg xmlns="http://www.w3.org/2000/svg" width="1200" height="1200" fill="none"><path fill="#000" d="M662.5 837c0 34.5-26.5 63-62.5 63-35 0-63-28-63-63 0-35.5 28-62.5 63-62.5 35.5 0 62.5 27.5 62.5 62.5m-63-537c-71.5 0-124.727 37.533-154.401 87.286-11.852 19.871-.606 44.154 20.721 53.126 23.799 10.013 50.19-3.532 66.59-23.473C547.335 398.793 569.07 385 600 385c81 0 97 76 68.5 116.5-27 38.5-73.5 64.5-98 108-9.8 17.34-13.665 36.07-15.085 53.525C553.38 688.07 575.37 708.5 600.5 708.5s43.855-20.59 47.87-45.395c1.8-11.135 4.655-17.42 8.63-25.105 19.5-36 55.5-53 93.5-108.5 34-50 21-118-1-154-25.5-42-76-75.5-150-75.5M950 250H250v700h700zm0-100c55 0 100 45 100 100v700c0 55-45 100-100 100H250c-55 0-100-45-100-100V250c0-55 45-100 100-100z"/></svg>

<svg width="1200" height="1200" viewBox="0 0 1200 1200" fill="none" xmlns="http://www.w3.org/2000/svg"><path d="M662.5 837C662.5 871.5 636 900 600 900C565 900 537 872 537 837C537 801.5 565 774.5 600 774.5C635.5 774.5 662.5 802 662.5 837ZM599.5 300C528 300 474.773 337.533 445.099 387.286C433.247 407.157 444.493 431.44 465.82 440.412C489.619 450.425 516.01 436.88 532.41 416.939C547.335 398.793 569.07 385 600 385C681 385 697 461 668.5 501.5C641.5 540 595 566 570.5 609.5C560.7 626.84 556.835 645.57 555.415 663.025C553.38 688.07 575.37 708.5 600.5 708.5C625.63 708.5 644.355 687.91 648.37 663.105C650.17 651.97 653.025 645.685 657 638C676.5 602 712.5 585 750.5 529.5C784.5 479.5 771.5 411.5 749.5 375.5C724 333.5 673.5 300 599.5 300ZM950 250H250V950H950V250ZM950 150C1005 150 1050 195 1050 250V950C1050 1005 1005 1050 950 1050H250C195 1050 150 1005 150 950V250C150 195 195 150 250 150H950Z" fill="#1D1E23"/></svg>
